X: 1
T: Pat Canny's
M: 4/4
L: 1/8
R: reel
K: Gmaj
|: AD (3DDD E2 DG | (3AAA GA BGGA- | AD (3DDD EGDE | GBAG EGGA |
AD (3DDD E2 DE | A3 B FE C2 | d4 B3A | GBAG EGGA :|
|: d3g eAdB | ABGA BGGB | d3g eAdB | GBAG EGGB |
[1d3g e2dB | A3 a- ag e2 | d4 B2- BA | G2 AG EGGB :|
[2d2 (3ddd e2 dB | A3 a- ag e2 | d3 B- BcBA | GBAG E2 (3AAA ||
